!!!!SEGMENT: pl-cz--iii-102_danik-jan-ignac--o-beatam-matrem.krn
!!!cenid: 17xx:873
!!!COM: Danik, Ján Ignác
!!!COM-rismID: pe30000792
!!!CDT: ~1700-~1799
!!!CNT: Czech
!!!OTL: O beatam Matrem
!!!PDT: 1773
!!!AGN: Sacred
!!!SMS-siglum: PL-CZ
!!!SMS-shelfmark: III-102
!!!SMS-shelfwork: W
!!!SMS-variant:
!!!SMS-altvar:
!!!NIFC-rismSourceID: 300000100
!!!NIFC-rismChildID: 300000100
!!!NIFC-islandoraID: pl-cz:34111
!!!URL-pdf-islandora: https://repozytorium.nifc.pl/islandora/object/pl-cz%3A34111/datastream/PDF/view
!!!URL-scan: https://polish.musicsources.pl/pl/lokalizacje/galeria/rekopisy/6820/1 @EN{Scan on Polish Music Sources Website} @PL{Skany w portalu Dziedzictwo Muzyki Polskiej w otwartym dostępie}
!!!IIIF:
!!!ONB-nifc:
!!!AIN: 1 organ 1 soprn 2 violn
!!!key: B-
**kern	**fba	**dynam	**kern	**dynam	**kern	**dynam	**kern	**text
*part4	*part4	*part4	*part3	*part3	*part2	*part2	*part1	*part1
*staff4	*	*	*staff3	*	*staff2	*	*staff1	*staff1
*I"Organo.	*	*	*I"Violino 2do:	*	*I"Violino Primo.	*	*I"Canto Solo.	*
*I'Org	*	*	*I'Vn II	*	*I'Vn I	*	*I'C.	*
*Iorgan	*	*	*Ivioln	*	*Ivioln	*	*Isoprn	*
*ICklav	*	*	*ICstr	*	*ICstr	*	*ICvox	*
*clefF4	*	*	*clefG2	*	*clefG2	*	*clefC1	*
*k[b-e-]	*	*	*k[b-e-]	*	*k[b-e-]	*	*k[b-e-]	*
*B-:	*	*	*B-:	*	*B-:	*	*B-:	*
*M2/4	*	*	*M2/4	*	*M2/4	*	*M2/4	*
=1	=1	=1	=1	=1	=1	=1	=1	=1
!	!	!	!	!	!	!	!LO:TX:a:t=P:problem=znak przykluczowy ee-	!
!LO:TX:a:t=P:problem=kolejność znaków E- BB-	!	!	!	!	!LO:TX:a:t=P:problem=kolejność znaków ee- b- od drugiego systemu	!	!LO:TX:a:t=Aria.	!
!LO:TX:a:t=Aria	!	!	!LO:TX:a:t=Aria	!	!LO:TX:a:t=Aria.	!	!LO:TX:a:t=Moderato.	!
!LO:TX:a:t=moderato.	!	!	!LO:TX:a:t=moderato.	!	!LO:TX:a:t=moderato.	!	!LO:TX:a:t=16.	!
!	!	!	!	!	!	!	!LO:TX:t=P:problem=cauda all\middle	!
*2\right	*	*	*2\right	*	*2\right	*	*all\middle	*
8B-\L	.	.	8d/L	.	8b-\L	.	2r	.
8B-\	.	.	8d/	.	(16ff\L	.	.	.
.	.	.	.	.	16dd\JJ)	.	.	.
8B-\	.	.	8d/	.	8b-/L	.	.	.
8B-\J	.	.	8d/J	.	8f/J	.	.	.
=2	=2	=2	=2	=2	=2	=2	=2	=2
!LO:TX:a:t=P:problem=mixed beam	!	!	!	!	!LO:TX:a:B:t=t.	!	!	!
8B-\L	6:5 4:3	.	8e-|/L	.	8g/L	.	2r	.
16BB-/L	.	.	(16d/L	.	8f/J	.	.	.
16C/JJ	.	.	16e-/JJ)	.	.	.	.	.
8D/L	x 6	.	8f/L	.	8r	.	.	.
8BB-/J	.	.	8d/J	.	8b-\	.	.	.
=3	=3	=3	=3	=3	=3	=3	=3	=3
8r	.	.	8r	.	(16a/LL	.	2r	.
.	.	.	.	.	16g/J)	.	.	.
16F\LL	.	.	16a\LL	.	8f|/J	.	.	.
16G\JJ	.	.	16b-\JJ	.	.	.	.	.
8A\L	6	.	8cc\L	.	8r	.	.	.
8F\J	7	.	8a\J	.	8ee-\	.	.	.
=4	=4	=4	=4	=4	=4	=4	=4	=4
8r	.	.	8r	.	(16dd\LL	.	2r	.
.	.	.	.	.	16cc\J)	.	.	.
16BB-/LL	.	.	16d/LL	.	8b-|\J	.	.	.
16C/JJ	.	.	16e-/JJ	.	.	.	.	.
8D/L	.	.	8f/L	.	8r	.	.	.
8BB-/J	.	.	8d/J	.	8ff\	.	.	.
=5	=5	=5	=5	=5	=5	=5	=5	=5
8r	.	.	8r	.	16gg\LL	.	2r	.
.	.	.	.	.	16ee-\JJ	.	.	.
!LO:TX:a:t=P:problem=mixed beam	!	!	!	!	!	!	!	!
.	.	.	.	.	8qqdd/	.	.	.
8C\L	.	.	4e-/	.	4cc\	.	.	.
8G\	6 4	.	.	.	.	.	.	.
8GG/J	5 n	.	8d/	.	8bn\	.	.	.
!	!	!	!	!	!LO:LB:g=original	!	!	!
=6	=6	=6	=6	=6	=6	=6	=6	=6
!	!	!	!	!	!LO:TX:t=P:problem=odwrócona kolejnosć znaków przykluczowych	!	!	!
*	*	*	*	*	*k[e-b-]	*	*	*
16C|\LL	.	.	16c/LL	.	16cc/LL	.	2r	.
16G|\	.	.	16g/	.	16g/	.	.	.
16E-|\	.	.	16e-/	.	16e-/	.	.	.
16G|\J	.	.	16g/JJ	.	16g/JJ	.	.	.
!	!	!	!	!	!LO:TX:a:t=P:problem=mixed beam	!	!	!
8C|\J	.	.	8c/	.	8c/L	.	.	.
8r	.	.	8r	.	8ee-\J	.	.	.
!LO:LB:g=original	!	!	!LO:LB:g=original	!	!	!	!	!
=7	=7	=7	=7	=7	=7	=7	=7	=7
8r	.	.	8r	.	16ff\LL	.	2r	.
.	.	.	.	.	16dd\JJ	.	.	.
!LO:TX:a:t=P:problem=mixed beam	!	!	!	!	!	!	!	!
.	.	.	.	.	8qqcc/	.	.	.
8BB-\L	.	.	4d/	.	4b-\	.	.	.
8F\	6 4	.	.	.	.	.	.	.
8FF/J	5 3	.	8c/	.	8a/	.	.	.
=8	=8	=8	=8	=8	=8	=8	=8	=8
16BB-\LL	.	.	16B-/LL	.	16b-/LL	.	2r	.
16F|\	.	.	16f/	.	16f/	.	.	.
16D|\	.	.	16d/	.	16d/	.	.	.
16F|\J	.	.	16f/JJ	.	16f/JJ	.	.	.
!	!	!	!LO:TX:a:t=P:problem=mixed beam	!	!LO:TX:a:t=P:problem=mixed beam	!	!	!
8BB-|\J	.	.	8B-/L	.	8B-/L	.	.	.
8r	.	.	8cc\J	.	8b-\J	.	.	.
=9	=9	=9	=9	=9	=9	=9	=9	=9
!LO:TX:a:t=P:problem=mixed beam	!	!	!	!	!LO:TUP:b	!	!	!
8F\L	7	.	8a\L	.	24f/LL	.	2r	.
.	.	.	.	.	24a/	.	.	.
.	.	.	.	.	24cc/JJ	.	.	.
8A\	.	.	8cc\J	.	24ee-\LL	.	.	.
.	.	.	.	.	24dd\	.	.	.
.	.	.	.	.	24cc\JJ	.	.	.
!	!	!	!LO:TX:a:t=P:problem=mixed beam	!	!	!	!	!
8B-\	.	.	8f/L	.	24dd\LL	.	.	.
.	.	.	.	.	24ff\	.	.	.
.	.	.	.	.	24bb-\JJ	.	.	.
8BB-/J	.	.	24dd\L	.	24ff\LL	.	.	.
.	.	.	24cc\	.	24ee-\	.	.	.
.	.	.	24b-\JJ	.	24dd\JJ	.	.	.
=10	=10	=10	=10	=10	=10	=10	=10	=10
!	!	!	!LO:TX:a:B:t=r	!	!LO:TX:a:B:t=tr.	!	!	!
8F\L	6:5 4:3	.	8b-/L	.	8dd\L	.	2r	.
16F\L	.	.	8a/J	.	8cc\J	.	.	.
16G\JJ	.	.	.	.	.	.	.	.
8A\L	.	.	8r	.	8r	.	.	.
8F\J	.	.	8a/	.	8cc\	.	.	.
!	!	!	!	!	!LO:LB:g=original	!	!	!
=11|:	=11	=11	=11|:	=11	=11	=11	=11	=11
!LO:TX:a:t=P:problem=mixed beam	!	!	!	!	!	!	!	!
8BB-/L	.	.	16b-\LL	.	16dd\LL	.	2r	.
.	.	.	16f\	.	16dd\	.	.	.
8B-\	.	.	16b-\	.	16dd\	.	.	.
.	.	.	16f\JJ	.	16dd\JJ	.	.	.
*	*	*	*	*	*tremolo	*	*	*
8A\	6 5	.	16cc\LL	.	16ee-\L	.	.	.
.	.	.	16f\	.	16ee-\	.	.	.
8F\J	.	.	16cc\	.	16ee-\	.	.	.
.	.	.	16f\JJ	.	16ee-\J	.	.	.
*	*	*	*	*	*Xtremolo	*	*	*
=12	=12	=12	=12	=12	=12	=12	=12	=12
!LO:TX:a:t=P:problem=mixed beam	!	!	!	!	!	!	!	!
8B-\L	.	.	8dd\L	.	8ff\L	.	2r	.
8E-\	.	.	8ee-\	.	24bb-\L	.	.	.
.	.	.	.	.	24aa\	.	.	.
.	.	.	.	.	24gg\JJ	.	.	.
8F\	.	.	8dd\	.	(8ff\L	.	.	.
8FF/J	x 7	.	8cc\J	.	8ee-\J)	.	.	.
=13:|	=13	=13	=13:|	=13	=13	=13	=13	=13
!LO:TX:a:t=P:problem=t. 13-14 zapisane jako repetycja	!	!	!	!	!	!	!	!
!LO:TX:a:t=P:problem=mixed beam	!	!	!LO:TX:a:t=P:problem=t. 13-14 zapisane jako repetycja	!	!	!	!	!
8BB-/Lyy	.	.	16b-\LLyy	.	24dd\LL	.	2r	.
.	.	.	.	.	24dd\	.	.	.
.	.	.	16f\yy	.	.	.	.	.
.	.	.	.	.	24dd\	.	.	.
8B-\yy	.	.	16b-\yy	.	24dd\	.	.	.
.	.	.	.	.	24dd\	.	.	.
.	.	.	16f\JJyy	.	.	.	.	.
.	.	.	.	.	24dd\JJ	.	.	.
*	*	*	*	*	*tremolo	*	*	*
8A\yy	.	.	16cc\LLyy	.	16ee-\L	.	.	.
.	.	.	16f\yy	.	16ee-\	.	.	.
8F\Jyy	.	.	16cc\yy	.	16ee-\	.	.	.
.	.	.	16f\JJyy	.	16ee-\J	.	.	.
*	*	*	*	*	*Xtremolo	*	*	*
=14	=14	=14	=14	=14	=14	=14	=14	=14
!LO:TX:a:t=P:problem=mixed beam	!	!	!	!	!	!	!	!
8B-\Lyy	.	.	8dd\Lyy	.	8ff\L	.	2r	.
8E-\yy	.	.	8ee-\yy	.	24bb-\L	.	.	.
.	.	.	.	.	24ccc\	.	.	.
.	.	.	.	.	24ddd\JJ	.	.	.
8F\yy	.	.	8dd\yy	.	(8ff\L	.	.	.
8FF/Jyy	.	.	8cc\Jyy	.	8ee-\J)	.	.	.
!	!	!	!LO:LB:g=original	!	!	!	!	!
=15	=15	=15	=15	=15	=15	=15	=15	=15
8BB-\L	.	.	(16b-\LL	.	(16dd\LL	.	2r	.
.	.	.	16dd\JJ)	.	16ff\JJ)	.	.	.
8D\	6 5	.	16r	.	16r	.	.	.
.	.	.	16f/	.	16b-|/	.	.	.
8E-\	6 5	.	(16e-/LL	.	(16cc\LL	.	.	.
.	.	.	16g/JJ)	.	16ee-\JJ)	.	.	.
8F\J	.	.	16r	.	16r	.	.	.
.	.	.	16c/	.	16a/	.	.	.
!LO:LB:g=original	!	!	!	!	!LO:LB:g=original	!	!	!
=16	=16	=16	=16	=16	=16	=16	=16	=16
8B-\L	.	.	8d/L	.	8b-|/L	.	2r	.
32F|\LL	.	.	32f/LL	.	32f/LL	.	.	.
32E-|\	.	.	(32e-/	.	(32e-/	.	.	.
32D|\	.	.	32d/)	.	32d/)	.	.	.
32C|\JJJ	.	.	32c/JJJ	.	32c/JJJ	.	.	.
!	!	!	!	!	!	!LO:DY:a:B:t=Piano.	!	!
4BB-|/	.	.	4B-/	.	4B-/	p	.	.
!LO:TX:t=P:problem=podwójna kreska taktowa	!	!	!	!	!	!	!	!
=17||	=17||	=17||	=17	=17	=17	=17	=17	=17
*tremolo	*	*	*tremolo	*	*	*	*	*
!	!	!LO:DY:a:B:t=Piano.	!	!LO:DY:a:B:t=Piano.	!	!	!	!
8BB-/L	.	p	8d/L	p	8b-/L	.	8b-\	O
8BB-/	.	.	8d/	.	8b-/	.	(16ff\LL	Be-
.	.	.	.	.	.	.	16dd\JJ)	.
8BB-/	.	.	8d/	.	8b-/	.	8b-\	-a-
8BB-/J	.	.	8d/J	.	8f/J	.	8f/	-tam
*Xtremolo	*	*	*Xtremolo	*	*	*	*	*
=18	=18	=18	=18	=18	=18	=18	=18	=18
8BB-/L	6:5 4:3	.	8e-|/L	.	8gT/L	.	8g/	Ma-
16BB-/L	.	.	(16d/L	.	8f/J	.	8f/	-trem
16C/JJ	.	.	16e-/JJ)	.	.	.	.	.
8D/L	.	.	8f/L	.	8r	.	8r	.
8BB-/J	.	.	8d/J	.	8b-\	.	8b-\	Qvam
=19	=19	=19	=19	=19	=19	=19	=19	=19
8r	.	.	8r	.	(16a/LL	.	(16a\LL	De-
.	.	.	.	.	16g/J)	.	16g\JJ)	.
16F\LL	.	.	(16a\LL	.	8f|/J	.	8f/	-us
16G\JJ	.	.	16b-\JJ)	.	.	.	.	.
8A\L	6	.	8cc\L	.	8r	.	8r	.
8F\J	7	.	8a\J	.	8ee-\	.	8ee-\	e-
=20	=20	=20	=20	=20	=20	=20	=20	=20
8r	.	.	8r	.	(16dd\LL	.	16dd\LL	-le-
.	.	.	.	.	16cc\J)	.	16cc\JJ	.
16BB-/LL	.	.	16d/LL	.	8b-|\J	.	8b-\	-git
16C/JJ	.	.	16e-/JJ	.	.	.	.	.
8D/L	.	.	8f/L	.	8r	.	8r	.
8BB-/J	.	.	8d/J	.	8ff\	.	8ff\	qvi
!	!	!	!LO:LB:g=original	!	!	!	!LO:LB:g=original	!
=21	=21	=21	=21	=21	=21	=21	=21	=21
!	!	!	!	!	!	!	!LO:TX:b:B:t=tr.	!
16E-\LL	5 3	.	16b-\LL	.	16gg\LL	.	2gg\	Cae-
16E-\	.	.	16b-\	.	16gg\	.	.	.
16E-\	.	.	16b-\	.	16gg\	.	.	.
16E-\JJ	.	.	16b-\JJ	.	16gg\JJ	.	.	.
*	*	*	*	*	*tremolo	*	*	*
16E-\LL	.	.	16b-\LL	.	16gg\L	.	.	.
16E-\	.	.	16b-\	.	16gg\	.	.	.
16E-\	.	.	16b-\	.	16gg\	.	.	.
16E-\JJ	.	.	16b-\JJ	.	16gg\J	.	.	.
*	*	*	*	*	*Xtremolo	*	*	*
!	!	!	!	!	!LO:LB:g=original	!	!	!
=22	=22	=22	=22	=22	=22	=22	=22	=22
4E-\	.	.	4b-\	.	4gg\	.	16ee-\KL	.
.	.	.	.	.	.	.	8b-\	.
.	.	.	.	.	.	.	8ee-\	.
4r	.	.	4r	.	4r	.	.	.
.	.	.	.	.	.	.	8gg\	.
.	.	.	.	.	.	.	16ee-\Jk	.
!LO:LB:g=original	!	!	!	!	!	!	!	!
=23	=23	=23	=23	=23	=23	=23	=23	=23
*tremolo	*	*	*tremolo	*	*	*	*	*
8D\L	6 3	.	8b-\L	.	2ff\	.	2ff\	.
8D\	.	.	8b-\	.	.	.	.	.
8D\	.	.	8b-\	.	.	.	.	.
8D\J	.	.	8b-\J	.	.	.	.	.
=24	=24	=24	=24	=24	=24	=24	=24	=24
4D\	.	.	4b-\	.	4ff\	.	16dd\KL	.
.	.	.	.	.	.	.	8b-\	.
.	.	.	.	.	.	.	8dd\	.
4r	.	.	4r	.	4r	.	.	.
.	.	.	.	.	.	.	8ff\	.
.	.	.	.	.	.	.	16dd\Jk	.
=25	=25	=25	=25	=25	=25	=25	=25	=25
!	!	!	!	!	!	!	!LO:TX:b:B:t=tr.	!
8F\L	7	.	8cc\L	.	2ee-\	.	2ee-\	.
8F\	.	.	8cc\	.	.	.	.	.
8F\	.	.	8cc\	.	.	.	.	.
8F\J	.	.	8cc\J	.	.	.	.	.
=26	=26	=26	=26	=26	=26	=26	=26	=26
4F\	.	.	4cc\	.	4ee-\	.	16cc\KL	.
.	.	.	.	.	.	.	8a\	.
.	.	.	.	.	.	.	8cc\	.
4r	.	.	4r	.	4r	.	.	.
.	.	.	.	.	.	.	8ee-\	.
.	.	.	.	.	.	.	16cc\Jk	.
=27	=27	=27	=27	=27	=27	=27	=27	=27
!	!	!	!	!	!	!	!LO:TX:b:B:t=tr.	!
8B-\L	.	.	8f/L	L.	2dd\	.	2dd\	.
8B-\	.	.	8f/	.	.	.	.	.
8B-\	.	.	8f/	.	.	.	.	.
8B-\J	.	.	8f/J	.	.	.	.	.
=28	=28	=28	=28	=28	=28	=28	=28	=28
4B-\	.	.	4f/	.	4dd\	.	16b-\KL	.
.	.	.	.	.	.	.	8f\	.
.	.	.	.	.	.	.	8b-\	.
4r	.	.	4r	.	4r	.	.	.
.	.	.	.	.	.	.	8dd\	.
.	.	.	.	.	.	.	16b-\Jk	.
=29	=29	=29	=29	=29	=29	=29	=29	=29
!	!	!	!	!	!	!	!LO:TX:b:B:t=tr.	!
8BB-/L	-	.	8f/L	.	2dd-X\	.	2dd-X\	.
8BB-/	.	.	8f/	.	.	.	.	.
8BB-/	.	.	8f/	.	.	.	.	.
8BB-/J	.	.	8f/J	.	.	.	.	.
*Xtremolo	*	*	*Xtremolo	*	*	*	*	*
=30	=30	=30	=30	=30	=30	=30	=30	=30
!	!	!	!	!	!LO:SIC:v:o=dd	!	!	!
4BB-/	.	.	4f/	.	4dd-y\	.	16b-\KL	.
.	.	.	.	.	.	.	8f\	.
.	.	.	.	.	.	.	8b-\	.
4r	.	.	4r	.	4r	.	.	.
.	.	.	.	.	.	.	8dd-X\	.
*	*	*	*	*	*	*	*custos:cc	*
.	.	.	.	.	.	.	16b-\Jk	.
!	!	!	!LO:LB:g=original	!	!	!	!LO:LB:g=original	!
=31	=31	=31	=31	=31	=31	=31	=31	=31
.	.	.	.	.	.	.	(8qqb-/	.
!	!	!	!	!LO:DY:a:B:t=f&colon;	!	!LO:DY:a:B:t=for.	!	!
4F\	.	.	16a/LL	f	(16cc\LL	f	4cc\)	-lum
.	.	.	16g/	.	16een\)	.	.	.
.	.	.	16g/	.	(16ee\	.	.	.
.	.	.	16a/JJ	.	16ff\JJ)	.	.	.
8r	.	.	8a/L	.	8ff\L	.	8r	.
!	!	!	!LO:TX:a:t=P:p= p&colon;:problem	!LO:DY:a:B:t=p&colon;	!	!LO:DY:a:B:t=p&colon;	!	!
8F\	.	.	8a/J	p	8cc\J	p	8a\	Ter-
!	!	!	!	!	!LO:LB:g=original	!	!	!
=32	=32	=32	=32	=32	=32	=32	=32	=32
!	!	!	!	!	!	!LO:DY:a:B:t=p&colon;	!	!
8B-\L	.	.	16f/LL	.	16dd\LL	p	4ddn\	-ram-
.	.	.	16f/	.	16dd\	.	.	.
8B-\	.	.	16f/	.	16dd\	.	.	.
.	.	.	16f/JJ	.	16dd\JJ	.	.	.
*	*	*	*tremolo	*	*tremolo	*	*	*
8G\	6\ 3	.	16b-\LL	.	16een\LL	.	4een\	-qvae
.	.	.	16b-\	.	16een\	.	.	.
8G\J	.	.	16b-\	.	16een\	.	.	.
.	.	.	16b-\JJ	.	16een\JJ	.	.	.
*	*	*	*Xtremolo	*	*Xtremolo	*	*	*
!LO:LB:g=original	!	!	!	!	!	!	!	!
=33	=33	=33	=33	=33	=33	=33	=33	=33
8A\L	6	.	8a/L	.	16ff\LL	.	(16ff\LL	re-
.	.	.	.	.	16cc\JJ	.	16cc\JJ)	.
.	.	.	.	.	8qqdd/	.	(8qqdd/	.
8F\	.	.	8a/	.	4cc\	.	4cc\)	.
8En\	6	.	8g/	.	.	.	.	.
.	.	.	.	.	.	.	(16qqcc/	.
8C\J	7	.	8en/J	.	8b-\	.	8b-\)	.
=34	=34	=34	=34	=34	=34	=34	=34	=34
4F\	.	.	8c/	.	8a/	.	(16a\LL	.
.	.	.	.	.	.	.	16cc\	.
.	.	.	8r	.	8r	.	16b-\	.
.	.	.	.	.	.	.	16dd\J)	.
4r	.	.	(16cc\LL	.	(16aa\LL	.	8cc|\J	.
.	.	.	16a\)	.	16ff\)	.	.	.
.	.	.	(16cc\	.	(16aa\	.	8r	.
.	.	.	16a\JJ)	.	16ff\JJ)	.	.	.
=35	=35	=35	=35	=35	=35	=35	=35	=35
4C/	7 n	.	4r	.	4r	.	(16g\LL	.
.	.	.	.	.	.	.	16b-\)	.
.	.	.	.	.	.	.	(16a\	.
.	.	.	.	.	.	.	16cc\J)	.
4r	.	.	(16b-/LL	.	(16gg\LL	.	8b-|\J	.
.	.	.	16g/)	.	16een\)	.	.	.
.	.	.	(16b-/	.	(16gg\	.	8r	.
.	.	.	16g/JJ)	.	16ee\JJ)	.	.	.
=36	=36	=36	=36	=36	=36	=36	=36	=36
!	!	!	!	!	!	!	!LO:TUP:r=8	!
4F\	.	.	4r	.	4r	.	24a\LL	.
.	.	.	.	.	.	.	24b-\	.
.	.	.	.	.	.	.	24cc\	.
!	!	!	!	!	!	!	!LO:TUP:a:problem=klamra łukowa	!
.	.	.	.	.	.	.	24b-\	.
.	.	.	.	.	.	.	24cc\	.
.	.	.	.	.	.	.	24dd\J	.
4r	.	.	(16a/LL	.	(16cc\LL	.	8cc\J	.
.	.	.	16f/)	.	16a\)	.	.	.
*	*	*	*	*	*	*	*custos:g	*
.	.	.	(16a/	.	(16cc\	.	8r	.
.	.	.	16f/JJ)	.	16a\JJ)	.	.	.
!	!	!	!LO:LB:g=original	!	!	!	!LO:LB:g=original	!
=37	=37	=37	=37	=37	=37	=37	=37	=37
!	!	!	!	!	!	!	!LO:TUP:a:problem=klamra łukowa	!
!	!	!	!	!	!	!	!LO:TUP:r=8	!
4C/	7 n	.	4r	.	4r	.	24g\LL	.
.	.	.	.	.	.	.	24a\	.
.	.	.	.	.	.	.	24b-\	.
!	!	!	!	!	!	!	!LO:TUP:a:problem=klamra łukowa	!
.	.	.	.	.	.	.	24a\	.
.	.	.	.	.	.	.	24b-\	.
.	.	.	.	.	.	.	24cc\J	.
4r	.	.	(16g/LL	.	(16b-/LL	.	8b-\J	.
.	.	.	16en/)	.	16g/)	.	.	.
.	.	.	(16g/	.	(16b-/	.	8r	.
.	.	.	16e/JJ)	.	16g/JJ)	.	.	.
!	!	!	!	!	!LO:LB:g=original	!	!	!
=38	=38	=38	=38	=38	=38	=38	=38	=38
4F\	.	.	4c/	.	4a/	.	16a\LL	.
.	.	.	.	.	.	.	16f\	.
.	.	.	.	.	.	.	16g\	.
.	.	.	.	.	.	.	16a\JJ	.
4r	.	.	4r	.	4r	.	16b-\LL	.
.	.	.	.	.	.	.	16cc\	.
.	.	.	.	.	.	.	16dd\	.
.	.	.	.	.	.	.	16een\JJ	.
=39	=39	=39	=39	=39	=39	=39	=39	=39
!	!	!	!	!	!	!	!LO:TUP:b:problem=klamra łukowa	!
8r	.	.	8r	.	8r	.	24ff\LL	.
.	.	.	.	.	.	.	24gg\	.
.	.	.	.	.	.	.	24aa\JJ	.
.	.	.	.	.	.	.	(8qqdd/	.
8F\L	.	.	8a/L	.	4cc\	.	4cc\)	.
8En\	6	.	8g/	.	.	.	.	.
8C\J	7	.	8en/J	.	8b-\	.	8b-\	.
=40	=40	=40	=40	=40	=40	=40	=40	=40
!LO:TX:a:t=P:problem=mixed beam	!	!	!	!	!	!	!	!
8F\L	.	.	8c/L	.	8a\L	.	24a\LL	.
.	.	.	.	.	.	.	24cc\	.
.	.	.	.	.	.	.	24b-\	.
8A\	.	.	8a/J	.	8ff\	.	24a\	.
.	.	.	.	.	.	.	24g\	.
.	.	.	.	.	.	.	24f\JJ	.
!	!	!	!	!	!	!	!LO:TX:a:B:t=tr.	!
8c\	6:5 4:n	.	4g/	.	8ff\	.	4g\	.
8C/J	.	.	.	.	8een\J	.	.	.
=41	=41	=41	=41	=41	=41	=41	=41	=41
!	!	!	!LO:TX:a:t=P:f = for:problem	!LO:DY:a:B:t=for.	!	!LO:DY:a:B:t=f&colon;	!	!
4F\	.	.	16a'/LL	f	(16ff\LL	f	4f/	-git
.	.	.	16a'/	.	16cc\)	.	.	.
.	.	.	(16a/	.	(16cc\	.	.	.
.	.	.	16g/JJ)	.	16b-\JJ)	.	.	.
8r	.	.	8f/L	.	8a/L	.	8r	.
!	!	!	!	!	!	!LO:DY:a:B:t=p&colon;	!	!
8C/	n	.	8en/J	.	8g/J	p	8g/	ac
!LO:LB:g=original	!	!	!	!	!	!	!	!
=42|:	=42	=42	=42|:	=42	=42|:	=42	=42	=42
!LO:TX:a:t=P:problem=mixed beam	!	!	!	!	!	!	!LO:TX:a:B:t=tr.	!
8FF/L	.	.	16f/LL	.	16a/LL	.	4a\	Sy-
.	.	.	16c/	.	16a/	.	.	.
8F\	.	.	16f/	.	16a/	.	.	.
.	.	.	16c/JJ	.	16a/JJ	.	.	.
*	*	*	*	*	*tremolo	*	*	*
*	*	*	*	*	*	*	*custos:cc	*
!	!	!	!	!	!	!	!LO:TX:a:B:t=tr.	!
8En\	6	.	16g/LL	.	16b-\LL	.	4b-\	-de-
.	.	.	16c/	.	16b-\	.	.	.
8C\J	7	.	16g/	.	16b-\	.	.	.
.	.	.	16c/JJ	.	16b-\JJ	.	.	.
*	*	*	*	*	*Xtremolo	*	*	*
!	!	!	!LO:LB:g=original	!	!	!	!LO:LB:g=original	!
=43	=43	=43	=43	=43	=43	=43	=43	=43
!LO:TX:a:t=P:problem=mixed beam	!	!	!	!	!	!	!	!
8F\L	.	.	8a/L	.	8cc\L	.	8cc\L	-ra
8B-\	.	.	8b-/	.	8dd\	.	24ff\L	.
.	.	.	.	.	.	.	24een\	.
.	.	.	.	.	.	.	24dd\JJ	.
8c\	n	.	8a/	.	8cc\	.	8cc\L	gu-
8C/J	7	.	8g/J	.	8b-\J	.	8b-\J	.
=44:|	=44	=44	=44:|	=44	=44:|	=44	=44	=44
!LO:TX:a:t=P:problem=t. 44-45 zapisane jako repetycja	!	!	!	!	!	!	!	!
!LO:TX:a:t=P:problem=mixed beam	!	!	!LO:TX:a:t=P:problem=t. 44-45 zapisane jako repetycja	!	!LO:TX:a:t=P:problem=t. 44-45 zapisane jako repetycja	!	!	!
8FF/Lyy	.	.	16f/LLyy	.	16a/LLyy	.	8.at\L	-be-
.	.	.	16c/yy	.	16a/yy	.	.	.
8F\yy	.	.	16f/yy	.	16a/yy	.	.	.
.	.	.	16c/JJyy	.	16a/JJyy	.	(32g\LL	.
.	.	.	.	.	.	.	32a\JJJ)	.
*	*	*	*	*	*tremolo	*	*	*
8En\yy	.	.	16g/LLyy	.	16b-\LLyy	.	8.b-T\L	.
.	.	.	16c/yy	.	16b-\yy	.	.	.
8C\Jyy	.	.	16g/yy	.	16b-\yy	.	.	.
.	.	.	16c/JJyy	.	16b-\JJyy	.	(32a\LL	.
*	*	*	*	*	*Xtremolo	*	*	*
.	.	.	.	.	.	.	32b-\JJJ)	.
=45	=45	=45	=45	=45	=45	=45	=45	=45
!LO:TX:a:t=P:problem=mixed beam	!	!	!	!	!	!	!	!
8F\Lyy	.	.	8a/Lyy	.	8cc\Lyy	.	8cc\L	.
!	!	!	!	!	!	!	!LO:TUP:b:problem=klamra łukowa	!
8B-\yy	.	.	8b-/yy	.	8dd\yy	.	24ff\L	.
.	.	.	.	.	.	.	24gg\	.
.	.	.	.	.	.	.	24aa\JJ	.
8c\yy	.	.	8a/yy	.	8cc\yy	.	(8cc\L	.
8C/Jyy	.	.	8g/Jyy	.	8b-\Jyy	.	8b-\J)	.
!	!	!	!	!	!LO:LB:g=original	!	!	!
=46	=46	=46	=46	=46	=46	=46	=46	=46
!LO:TX:a:t=P:problem=mixed beam	!	!	!	!	!	!LO:DY:a:B:t=Forté.	!	!
8F\L	.	.	4f/	.	4a/	f	(16a\LL	.
.	.	.	.	.	.	.	16cc\JJ)	.
8AA/	6	.	.	.	.	.	16r	.
.	.	.	.	.	.	.	16f/	.
8BB-/	6	.	4r	.	4r	.	16g\LL	.
.	.	.	.	.	.	.	16b-\JJ	.
8C/J	n	.	.	.	.	.	16r	.
.	.	.	.	.	.	.	16en/	-r-
=47	=47	=47	=47	=47	=47	=47	=47	=47
!	!	!	!	!	!	!	!LO:SIC:v:o=e-	!
.	.	.	.	.	.	.	8qqen/	.
*tremolo	*	*	*	*	*	*	*	*
!	!	!LO:DY:a:B:t=Forté	!	!LO:DY:a:B:t=Forté	!	!	!	!
8F\L	.	f	8a/L	f	8ff\L	.	4f/	-nat
8F\	.	.	8a/	.	(16ccc\L	.	.	.
.	.	.	.	.	16aa\JJ)	.	.	.
8F\	.	.	8a/	.	8ff\L	.	4r	.
8F\J	.	.	8a/J	.	8cc\J	.	.	.
*Xtremolo	*	*	*	*	*	*	*	*
=48	=48	=48	=48	=48	=48	=48	=48	=48
!	!	!	!	!	!LO:TX:a:B:t=r.	!	!LO:TX:a:t=8.	!
8F\L	6 4	.	8b-\L	.	8dd\L	.	2r	.
16F\L	5 3	.	(16a\L	.	8cc\J	.	.	.
16G\JJ	.	.	16b-\JJ)	.	.	.	.	.
8A\L	.	.	8cc\L	.	8r	.	.	.
8F\J	n5	.	8a\J	.	8ff\	.	.	.
=49	=49	=49	=49	=49	=49	=49	=49	=49
8r	.	.	8r	.	(16een\LL	.	2r	.
.	.	.	.	.	16dd\J)	.	.	.
16C/LL	n	.	16en/LL	.	8cc\J	.	.	.
16D/JJ	.	.	16f/JJ	.	.	.	.	.
8En/L	6	.	8g/L	.	8r	.	.	.
8C/J	7	.	8e/J	.	8bb-\	.	.	.
=50	=50	=50	=50	=50	=50	=50	=50	=50
8r	.	.	8r	.	(16aa\LL	.	2r	.
.	.	.	.	.	16gg\J	.	.	.
16F\LL	.	.	16a\LL	.	8ff\J)	.	.	.
16G\JJ	.	.	16b-\JJ	.	.	.	.	.
!LO:LB:g=original	!	!	!	!	!	!	!	!
!LO:TX:a:t=P:problem=mixed beam	!	!	!	!	!	!	!	!
8A\L	6	.	8cc\L	.	8r	.	.	.
8C/J	7 n	.	8een\J	.	8gg\	.	.	.
=51|:	=51	=51	=51	=51	=51	=51	=51	=51
!LO:TX:a:t=P:problem=mixed beam	!	!	!	!	!	!	!	!
8FF/L	.	.	16ff\LL	.	16aa\LL	.	2r	.
.	.	.	16cc\	.	16aa\	.	.	.
8F\	.	.	16ff\	.	16aa\	.	.	.
.	.	.	16cc\JJ	.	16aa\JJ	.	.	.
!	!	!	!LO:LB:g=original	!	!	!	!	!
*	*	*	*	*	*tremolo	*	*	*
8En\	6	.	16gg\LL	.	16bb-\LL	.	.	.
.	.	.	16cc\	.	16bb-\	.	.	.
8C\J	7	.	16gg\	.	16bb-\	.	.	.
.	.	.	16cc\JJ	.	16bb-\JJ	.	.	.
*	*	*	*	*	*Xtremolo	*	*	*
!	!	!	!	!	!LO:LB:g=original	!	!	!
=52	=52	=52	=52	=52	=52	=52	=52	=52
!LO:TX:a:t=P:problem=mixed beam	!	!	!	!	!	!	!	!
8F\L	.	.	8aa\L	.	8ccc\L	.	2r	.
8B-\	.	.	8bb-\	.	24bb-\L	.	.	.
.	.	.	.	.	24ccc\	.	.	.
.	.	.	.	.	24ddd\JJ	.	.	.
8c\	n	.	8aa\	.	8ccc\L	.	.	.
8C/J	7	.	8gg\J	.	8bb-\J	.	.	.
=53:|	=53	=53	=53	=53	=53	=53	=53	=53
!LO:TX:a:t=P:problem=t. 53-54 zapisane jako repetycja	!	!	!	!	!	!	!	!
!LO:TX:a:t=P:problem=mixed beam	!	!	!	!	!	!	!	!
8FF/Lyy	.	.	16ff\LL	.	24aa\LL	.	2r	.
.	.	.	.	.	24aa\	.	.	.
.	.	.	16cc\	.	.	.	.	.
.	.	.	.	.	24aa\	.	.	.
8F\yy	.	.	16ff\	.	24aa\	.	.	.
.	.	.	.	.	24aa\	.	.	.
.	.	.	16cc\JJ	.	.	.	.	.
.	.	.	.	.	24aa\JJ	.	.	.
*	*	*	*	*	*tremolo	*	*	*
8En\yy	.	.	16gg\LL	.	16bb-\LL	.	.	.
.	.	.	16cc\	.	16bb-\	.	.	.
8C\Jyy	.	.	16gg\	.	16bb-\	.	.	.
.	.	.	16cc\JJ	.	16bb-\JJ	.	.	.
*	*	*	*	*	*Xtremolo	*	*	*
=54	=54	=54	=54	=54	=54	=54	=54	=54
!LO:TX:a:t=P:problem=mixed beam	!	!	!	!	!	!	!	!
8F\Lyy	.	.	8aa\L	.	8ccc\L	.	2r	.
8B-\yy	.	.	8bb-\	.	24bb-\L	.	.	.
.	.	.	.	.	24ccc\	.	.	.
.	.	.	.	.	24ddd\JJ	.	.	.
8c\yy	.	.	8aa\	.	(8ccc\L	.	.	.
8C/Jyy	.	.	8gg\J	.	8bb-\J)	.	.	.
=55	=55	=55	=55	=55	=55	=55	=55	=55
*	*	*	*	*	*	*	*custos:f	*
8F\L	.	.	(16ff\LL	.	(16aa\LL	.	2r	.
.	.	.	16aa\JJ)	.	16ccc\JJ)	.	.	.
8A\	6	.	16r	.	16r	.	.	.
.	.	.	16cc|\	.	16ff\	.	.	.
8B-\	6	.	(16b-\LL	.	(16gg\LL	.	.	.
.	.	.	16dd\JJ)	.	16bb-\JJ)	.	.	.
8c\J	n	.	16r	.	16r	.	.	.
.	.	.	16g|/	.	16een\	.	.	.
!	!	!	!	!	!LO:LB:g=original	!	!LO:LB:g=original	!
=56	=56	=56	=56	=56	=56	=56	=56	=56
*tremolo	*	*	*	*	*	*	*	*
!	!	!LO:DY:a:B:t=Piano.	!no	!LO:DY:a:B:t=piano	!	!LO:DY:a:B:t=Piano.	!	!
8F\L	.	p	8a/L	p	8ff\L	p	8f/	O
8F\	.	.	8a/	.	8cc\	.	(16cc\LL	Be-
.	.	.	.	.	.	.	16a\JJ)	.
8F\	.	.	8a/	.	8cc\	.	8f/	-a-
8F\J	.	.	8a/J	.	8cc\J	.	8ff\	-tam
*Xtremolo	*	*	*	*	*	*	*	*
!	!	!	!LO:LB:g=original	!	!	!	!	!
=57	=57	=57	=57	=57	=57	=57	=57	=57
!	!	!	!	!	!LO:TX:a:B:t=r.	!	!	!
8F\L	6 4	.	8b-/L	.	8dd\L	.	8ee-\	Ma-
16F\L	5 3	.	16a/L	.	8cc\J	.	8dd\	-trem
16G\JJ	.	.	16b-/JJ	.	.	.	.	.
8A\L	.	.	8cc/L	.	8r	.	8r	.
8F\J	.	.	8a/J	.	8ff\	.	8ff\	qvam
=58	=58	=58	=58	=58	=58	=58	=58	=58
8r	.	.	8r	.	(16een\LL	.	16ee-\LL	De-
.	.	.	.	.	16dd\J	.	16dd\JJ	.
16C/LL	n	.	16en/LL	.	8cc\J)	.	8cc\	-us
16D/JJ	.	.	16f/JJ	.	.	.	.	.
8En/L	6	.	8g/L	.	8r	.	8r	.
8C/J	7	.	8e/J	.	8b-/	.	8b-\	e-
!LO:LB:g=original	!	!	!	!	!	!	!	!
=59	=59	=59	=59	=59	=59	=59	=59	=59
4F\	.	.	4c/	.	(16a/LL	.	16a/LL	-le-
.	.	.	.	.	16g/J)	.	16g/JJ	.
.	.	.	.	.	8f|/J	.	8f/	-git
!	!	!	!	!LO:DY:a:B:t=for.	!	!LO:DY:a:B:t=for.	!	!
8A\L	6	.	(16f/LL	f	(16a\LL	f	4r	.
.	.	.	16a/)	.	16cc\)	.	.	.
8F\J	-7	.	(16a/	.	(16cc\	.	.	.
.	.	.	16cc/JJ)	.	16ee-X\JJ)	.	.	.
=60	=60	=60	=60	=60	=60	=60	=60	=60
!LO:TX:a:t=P:problem=mixed beam	!	!	!	!LO:DY:a:B:t=p&colon;	!LO:TX:a:t=P:problem=mixed beam	!LO:DY:a:B:t=pia.	!	!
8B-\L	.	.	8b-/L	p	8dd\L	p	8b-\	Qui
8BB-/	.	.	8d/	.	8f/	.	16ff\LL	Cae-
.	.	.	.	.	.	.	16dd\JJ	.
8BB-/	.	.	8d/	.	8f/	.	8b-\	-lum
*	*	*	*	*	*	*	*custos:g	*
8BB-/J	.	.	8d/J	.	8f/J	.	8f/	ter-
!	!	!	!	!	!	!	!LO:LB:g=original	!
=61	=61	=61	=61	=61	=61	=61	=61	=61
!	!	!	!	!	!LO:TX:a:B:t=r	!	!	!
8BB-/L	6 5	.	8e-/L	.	8g/L	.	8g/	-ram-
16BB-/L	4 3	.	(16d/L	.	8f/J	.	8f/	qve
16C/JJ	.	.	16e-/JJ)	.	.	.	.	.
8D/L	.	.	8f/L	.	8r	.	8r	.
8BB-/J	.	.	8d/J	.	8b-\	.	8b-\	gu-
!	!	!	!	!	!LO:LB:g=original	!	!	!
=62	=62	=62	=62	=62	=62	=62	=62	=62
8r	.	.	8r	.	(16a/LL	.	16a\LL	-ber-
.	.	.	.	.	16g/J)	.	16g\JJ	.
16F\LL	.	.	(16A/LL	.	8f|/J	.	8f/	-nat
16G\JJ	.	.	16B-/JJ)	.	.	.	.	.
8A\L	6	.	8c/L	.	8r	.	8r	.
8F\J	-7	.	8A/J	.	8ee-|\	.	8ee-\	ac
!	!	!	!LO:LB:g=original	!	!	!	!	!
=63	=63	=63	=63	=63	=63	=63	=63	=63
!LO:TX:a:t=P:problem=mixed beam	!	!	!	!	!	!	!	!
8B-\L	.	.	4f/	.	(16dd\LL	.	16dd\LL	re-
.	.	.	.	.	16cc\J)	.	16cc\JJ	.
8BB-/J	.	.	.	.	8b-|\J	.	8b-\	-it
!	!	!	!	!LO:DY:a:B:t=for.	!	!LO:DY:a:B:t=for.	!	!
4r	.	.	(16dd\LL	f	(16ff\LL	f	4r	.
.	.	.	16cc\)	.	16ee-\)	.	.	.
.	.	.	(16cc\	.	(16ee-\	.	.	.
.	.	.	16b-\JJ)	.	16dd\JJ)	.	.	.
=64	=64	=64	=64	=64	=64	=64	=64	=64
4BB-/	.	.	8b-\L	.	8dd\L	.	8r	.
!	!	!	!	!LO:DY:a:B:t=pia.	!	!LO:DY:a:B:t=pia.	!	!
.	.	.	8b-\	p	8b-\	p	8b-\	hanc
4r	.	.	8dd\	.	8dd\	.	8dd\	ſu-
.	.	.	8ff\J	.	8ff\J	.	8ff\	-per
=65	=65	=65	=65	=65	=65	=65	=65	=65
8r	.	.	(16f/LL	.	(16a-X/LL	.	(16a-X\LL	San-
.	.	.	16e-/JJ)	.	16g/JJ)	.	16g\JJ)	.
*	*	*	*	*	*	*	*custos:b-	*
8BB-/L	-7	.	4.f/	.	4.a-/	.	4.a-X\	-ctos
8BB-/	.	.	.	.	.	.	.	.
8BB-/J	.	.	.	.	.	.	.	.
!	!	!	!	!	!	!	!LO:LB:g=original	!
=66	=66	=66	=66	=66	=66	=66	=66	=66
*tremolo	*	*	*	*	*	*	*	*
!	!	!	!	!	!LO:SIC:v:o=a	!	!	!
8BB-/L	_	.	8f/LL	.	2a-y/	.	16b-\LL	Col-
.	.	.	.	.	.	.	16dd\JJ	.
8BB-/	x	.	8f/	.	.	.	16ff\LL	-lo-
.	.	.	.	.	.	.	16ee-\JJ	.
8BB-/	.	.	8f/	.	.	.	16dd\LL	-ca-
.	.	.	.	.	.	.	16cc\	.
8BB-/J	.	.	8f/JJ	.	.	.	16b-\	.
.	.	.	.	.	.	.	16a-X\JJ	.
*Xtremolo	*	*	*	*	*	*	*	*
!LO:LB:g=original	!	!	!	!	!	!	!	!
=67	=67	=67	=67	=67	=67	=67	=67	=67
!	!	!	!	!LO:DY:a:B:t=for.	!	!LO:DY:a:B:t=for.	!	!
8E-\	.	.	(16e-/LL	f	(16g/LL	f	4g/	-vit
.	.	.	16g/)	.	16b-/)	.	.	.
8r	.	.	(16g/	.	(16b-/	.	.	.
.	.	.	16f/JJ)	.	16a-X/JJ)	.	.	.
8E-\L	.	.	8e-/	.	8g/	.	4r	.
8D\J	6\ 3	.	8r	.	8r	.	.	.
=68	=68	=68	=68	=68	=68	=68	=68	=68
4C/	n	.	8r	.	8r	.	8r	.
!	!	!	!	!LO:DY:a:B:t=p&colon;	!	!LO:DY:a:B:t=pia.	!	!
.	.	.	8cc\L	p	8cc\L	p	8cc\	hanc
4r	.	.	8een\	.	8een\	.	8een\	De-
.	.	.	8gg\J	.	8gg\J	.	8gg\	-us
!	!	!	!	!	!LO:LB:g=original	!	!	!
=69	=69	=69	=69	=69	=69	=69	=69	=69
8r	.	.	(16g/LL	.	(16b-/LL	.	(16b-\LL	post
.	.	.	16f/JJ)	.	16an/JJ)	.	16an\JJ)	.
8C/L	7 n	.	4.g/	.	4.b-/	.	4.b-\	ſe
8C/	.	.	.	.	.	.	.	.
8C/J	.	.	.	.	.	.	.	.
!	!	!	!LO:LB:g=original	!	!	!	!	!
=70	=70	=70	=70	=70	=70	=70	=70	=70
*tremolo	*	*	*tremolo	*	*	*	*	*
8C/L	_	.	8g/LL	.	2b-\	.	16b-\LL	vo-
.	.	.	.	.	.	.	16een\	.
8C/	x	.	8g/	.	.	.	16gg\	.
.	.	.	.	.	.	.	16ff\JJ	.
8C/	.	.	8g/	.	.	.	16ee\LL	-ca-
.	.	.	.	.	.	.	16dd\	.
8C/J	.	.	8g/JJ	.	.	.	16cc\	.
.	.	.	.	.	.	.	16b-\JJ	.
*Xtremolo	*	*	*Xtremolo	*	*	*	*	*
!	!	!	!	!	!	!	!LO:LB:g=original	!
=71	=71	=71	=71	=71	=71	=71	=71	=71
.	.	.	.	.	.	.	16qqb-/	.
!	!	!	!	!LO:DY:a:B:t=f&colon;	!	!LO:DY:a:B:t=f&colon;	!	!
8F\	.	.	(16f/LL	f	(16a\LL	f	4a\	-vit
.	.	.	16a/)	.	16cc\)	.	.	.
8r	.	.	(16a/	.	(16cc\	.	.	.
.	.	.	16g/JJ)	.	16b-\JJ)	.	.	.
!LO:TX:a:t=P:problem=mixed beam	!	!	!	!	!	!	!	!
8F\L	.	.	8f/	.	8a/	.	4r	.
8FF/J	.	.	8r	.	8r	.	.	.
=72	=72	=72	=72	=72	=72	=72	=72	=72
8r	.	.	8r	.	8r	.	16cc\LL	nam
.	.	.	.	.	.	.	16a\JJ	.
!	!	!	!	!LO:DY:a:B:t=pia.	!	!LO:DY:a:B:t=pia.	!	!
8F\L	.	.	8a/L	p	8cc\L	p	8f/	haec
8A\	.	.	8a/	.	8cc\	.	8r	.
8F\J	.	.	8a/J	.	8cc\J	.	8cc\	haec
=73	=73	=73	=73	=73	=73	=73	=73	=73
8r	.	.	8r	.	8r	.	16dd\LL	di-
.	.	.	.	.	.	.	16b-\JJ	.
8BB-/L	.	.	8f/L	.	8dd\L	.	8f/	-gna
8D/	.	.	8f/	.	8dd\	.	8r	.
8BB-/J	.	.	8f/J	.	8dd\J	.	8dd\	Di-
=74	=74	=74	=74	=74	=74	=74	=74	=74
!LO:TX:a:t=P:problem=mixed beam	!	!	!	!	!	!	!	!
8F\L	7_	.	8a\L	.	8ee-\L	.	(4ee-X\	-vi-
8A\	x	.	8cc\J	.	8ee-\	.	.	.
8B-\	.	.	8f/L	.	8dd\	.	4dd\)	.
!	!	!	!	!	!	!LO:DY:a:B:t=f&colon;	!	!
8BB-/J	.	.	8b-/J	.	8dd\J	f	.	.
=75	=75	=75	=75	=75	=75	=75	=75	=75
!	!	!	!	!LO:DY:a:B:t=f&colon;	!	!	!	!
4F\	.	.	(16a\LL	f	(16cc\LL	.	4cc\	-no
.	.	.	16b-\)	.	16dd\)	.	.	.
.	.	.	(16b-\	.	(16dd\	.	.	.
!	!	!	!	!	!	!LO:DY:a:B:t=p&colon;	!	!
.	.	.	16cc\JJ)	.	16ee-\JJ)	p	.	.
8r	.	.	8cc\L	.	8ee-\L	.	8r	.
!	!	!	!	!LO:DY:a:B:t=p&colon;	!	!	!	!
8F\	.	.	8cc\J	p	8ee-\J	.	8ee-\	A-
!LO:LB:g=original	!	!	!	!	!	!	!	!
=76	=76	=76	=76	=76	=76	=76	=76	=76
!LO:TX:a:t=P:problem=mixed beam	!	!	!	!	!	!	!	!
8B-\L	.	.	8b-\L	.	8dd\L	.	(16dd\LL	mo-
.	.	.	.	.	.	.	16ee-\	.
8D\	6	.	8b-\	.	8dd\	.	16ff\)	.
.	.	.	.	.	.	.	16b-\JJ	.
!	!	!	!	!	!	!LO:DY:a:B:t=f&colon;	!	!
8F\	.	.	8b-\	.	8cc\	f	4ccT\	.
8FF/J	.	.	8a\J	.	8cc\J	.	.	.
!	!	!	!LO:LB:g=original	!	!	!	!	!
=77	=77	=77	=77	=77	=77	=77	=77	=77
!	!	!	!	!LO:DY:a:B:t=f&colon;	!	!	!	!
8BB-/	.	.	(16f/LL	f	(16dd\LL	.	4b-\	-re
.	.	.	16e-/)	.	16cc\)	.	.	.
8r	.	.	(16e-/	.	(16cc\	.	.	.
.	.	.	16d/JJ)	.	16b-\JJ)	.	.	.
!LO:TX:a:t=P:problem=mixed beam	!	!	!	!	!	!	!LO:LB:g=original	!
8B-\L	.	.	4d/	.	4b-\	.	4r	.
8BB-/J	.	.	.	.	.	.	.	.
=78	=78	=78	=78	=78	=78	=78	=78	=78
!LO:TX:a:t=P:problem=mixed beam	!	!	!	!LO:DY:a:B:t=p&colon;	!	!LO:DY:a:B:t=pia.	!	!
8FF/L	.	.	16f/LL	p	4a/	p	4a\	MA-
.	.	.	16f/	.	.	.	.	.
8F\	x 3	.	16f/	.	.	.	.	.
.	.	.	16f/JJ	.	.	.	.	.
*	*	*	*tremolo	*	*	*	*	*
8FF/	4 2	.	16g/LL	.	4b-\	.	4b-\	.
.	.	.	16g/	.	.	.	.	.
8F\J	.	.	16g/	.	.	.	.	.
.	.	.	16g/JJ	.	.	.	.	.
=79	=79	=79	=79	=79	=79	=79	=79	=79
!LO:TX:a:t=P:problem=mixed beam	!	!	!	!	!	!	!	!
8FF/L	5 3	.	16a/LL	.	4cc\	.	4cc\	-RI-
.	.	.	16a/	.	.	.	.	.
8F\	.	.	16a/	.	.	.	.	.
.	.	.	16a/JJ	.	.	.	.	.
8FF/	6 4	.	16b-\LL	.	4dd\	.	4dd\	.
.	.	.	16b-\	.	.	.	.	.
8F\J	.	.	16b-\	.	.	.	.	.
.	.	.	16b-\JJ	.	.	.	.	.
*	*	*	*Xtremolo	*	*	*	*	*
=80	=80	=80	=80	=80	=80	=80	=80	=80
!	!	!	!LO:TX:b:t=volti citiſ&colon;	!	!LO:TX:b:t=volti citiſe&colon;	!	!	!
2F;\	.	.	2cc;\	.	2ee-;\	.	2ee-;\	-A
!	!	!	!LO:PB:g=original	!	!LO:PB:g=original	!	!	!
=81	=81	=81	=81	=81	=81	=81	=81	=81
!	!	!	!	!	!	!LO:DY:a:B:t=p&colon;	!	!
8r	.	.	8r	.	8r	p	24dd\LL	Hu-
.	.	.	.	.	.	.	24ee-\	.
.	.	.	.	.	.	.	24ff\JJ	.
!LO:TX:a:t=P:problem=mixed beam	!	!	!	!	!	!	!	!
8B-\L	.	.	8dd\L	.	8ff\L	.	4.ffT\	-ic
8B-\	.	.	8dd\	.	8ff\	.	.	.
8BB-/J	.	.	8dd\J	.	8ff\J	.	.	.
=82	=82	=82	=82	=82	=82	=82	=82	=82
!	!	!	!	!	!	!	!LO:TUP:b	!
8r	.	.	8r	.	8r	.	24ee-\LL	e-
.	.	.	.	.	.	.	24gg\	.
.	.	.	.	.	.	.	24ee-\JJ	.
!LO:TX:a:t=P:problem=mixed beam	!	!	!	!	!	!	!	!
8F\L	7	.	8cc\L	.	8ee-\L	.	4.cc\	-go
8F\	.	.	8cc\	.	8ee-\	.	.	.
8FF/J	.	.	8cc\J	.	8ee-\J	.	.	.
=83	=83	=83	=83	=83	=83	=83	=83	=83
!	!	!	!	!	!	!	!LO:TUP:b	!
8r	.	.	8r	.	8r	.	24dd\LL	Co-
.	.	.	.	.	.	.	24ee-\	.
.	.	.	.	.	.	.	24ff\JJ	.
!LO:TX:a:t=P:problem=mixed beam	!	!	!	!	!	!	!	!
8B-\L	.	.	8f/L	.	8dd\L	.	4.ff\	-rde
8B-\	.	.	8f/	.	8dd\	.	.	.
8BB-/J	.	.	8f/J	.	8dd\J	.	.	.
=84	=84	=84	=84	=84	=84	=84	=84	=84
!	!	!	!	!	!	!	!LO:TUP:b	!
8r	.	.	8r	.	8r	.	24ee-\LL	Pi-
.	.	.	.	.	.	.	24gg\	.
.	.	.	.	.	.	.	24ee-\JJ	.
!LO:TX:a:t=P:problem=mixed beam	!	!	!	!	!	!	!	!
8F\L	7	.	8e-/L	.	8cc\L	.	4.cc\	-o
8F\	.	.	8e-/	.	8cc\	.	.	.
8FF/J	.	.	8e-/J	.	8cc\J	.	.	.
!LO:LB:g=original	!	!	!	!	!	!	!	!
=85	=85	=85	=85	=85	=85	=85	=85	=85
!LO:TX:a:t=P:problem=mixed beam	!	!	!	!	!	!	!	!
8BB-\L	.	.	8f/L	.	8dd\L	.	16dd\LL	can-
.	.	.	.	.	.	.	16ff\	.
8D\	6	.	8b-/	.	8dd\	.	16bb-\	.
*	*	*	*	*	*	*	*custos:cc	*
.	.	.	.	.	.	.	16b-\JJ	.
!	!	!	!	!	!	!	!LO:LB:g=original	!
8F\	.	.	8b-/	.	8cc\	.	4ccT\	-te-
8FF/J	5 4:3	.	8a/J	.	8cc\J	.	.	.
=86	=86	=86	=86	=86	=86	=86	=86	=86
!	!	!	!	!LO:DY:a:B:t=f&colon;	!	!LO:DY:a:B:t=f&colon;	!	!
4BB-/	.	.	(16b-\LL	f	(16b-\LL	f	4b-\	-mus
.	.	.	16dd\)	.	16ff\)	.	.	.
.	.	.	(16dd\	.	(16ff\	.	.	.
.	.	.	16cc\JJ)	.	16ee-\JJ)	.	.	.
8r	.	.	8b-/L	.	8dd\L	.	8r	.
!	!	!	!	!LO:DY:a:B:t=p&colon;	!	!LO:DY:a:B:t=p&colon;	!	!
8F\	.	.	8a/J	p	8cc\J	p	8cc\	E-
=87|:	=87	=87	=87|:	=87	=87|:	=87	=87	=87
!LO:TX:a:t=P:problem=mixed beam	!	!	!	!	!	!	!	!
8BB-/L	.	.	16b-/LL	.	16dd\LL	.	4dd\	-am
.	.	.	16f/	.	16dd\	.	.	.
8B-\	.	.	16b-/	.	16dd\	.	.	.
.	.	.	16f/JJ	.	16dd\JJ	.	.	.
*	*	*	*	*	*tremolo	*	*	*
8A\	6 5	.	16cc/LL	.	16ee-\LL	.	4ee-\	qve-
.	.	.	16f/	.	16ee-\	.	.	.
8F\J	.	.	16cc/	.	16ee-\	.	.	.
.	.	.	16f/JJ	.	16ee-\JJ	.	.	.
*	*	*	*	*	*Xtremolo	*	*	*
!	!	!	!LO:LB:g=original	!	!	!	!	!
=88	=88	=88	=88	=88	=88	=88	=88	=88
!LO:TX:a:t=P:problem=mixed beam	!	!	!	!	!	!	!	!
8B-\L	.	.	8dd\L	.	8ff\L	.	8ff\L	-la-
!	!	!	!	!	!	!	!LO:TUP:b	!
8E-\	.	.	8ee-\	.	8gg\	.	24ee-\L	.
.	.	.	.	.	.	.	24ff\	.
.	.	.	.	.	.	.	24gg\JJ	.
8F\	.	.	8dd\	.	8ff\	.	8ff\L	-de-
8FF/J	7	.	8cc\J	.	8ee-\J	.	8ee-\J	.
=89:|	=89	=89	=89:|	=89	=89:|	=89	=89	=89
!LO:TX:a:t=P:problem=t. 89-90 zapisane jako repetycja	!	!	!	!	!	!	!	!
!LO:TX:a:t=P:problem=mixed beam	!	!	!LO:TX:a:t=P:problem=t. 89-90 zapisane jako repetycja	!	!LO:TX:a:t=P:problem=t. 89-90 zapisane jako repetycja	!	!	!
8BB-/Lyy	.	.	16b-/LLyy	.	16dd\LLyy	.	8.ddt\L	.
.	.	.	16f/yy	.	16dd\yy	.	.	.
8B-\yy	.	.	16b-/yy	.	16dd\yy	.	.	.
.	.	.	16f/JJyy	.	16dd\JJyy	.	32cc\LL	.
.	.	.	.	.	.	.	32dd\JJJ	.
*	*	*	*	*	*tremolo	*	*	*
8A\yy	.	.	16cc/LLyy	.	16ee-\LLyy	.	8.ee-T\L	.
.	.	.	16f/yy	.	16ee-\yy	.	.	.
8F\Jyy	.	.	16cc/yy	.	16ee-\yy	.	.	.
.	.	.	16f/JJyy	.	16ee-\JJyy	.	32dd\LL	.
*	*	*	*	*	*Xtremolo	*	*	*
.	.	.	.	.	.	.	32ee-\JJJ	.
=90	=90	=90	=90	=90	=90	=90	=90	=90
!LO:TX:a:t=P:problem=mixed beam	!	!	!	!	!	!	!	!
8B-\Lyy	.	.	8dd\Lyy	.	8ff\Lyy	.	8ff\L	.
!	!	!	!	!	!	!	!LO:TUP:b	!
8E-\yy	.	.	8ee-\yy	.	8gg\yy	.	24bb-\L	.
.	.	.	.	.	.	.	24aa\	.
.	.	.	.	.	.	.	24gg\JJ	.
8F\yy	.	.	8dd\yy	.	8ff\yy	.	8ff\L	.
8FF/Jyy	.	.	8cc\Jyy	.	8ee-\Jyy	.	8ee-\J	.
!	!	!	!	!	!LO:LB:g=original	!	!	!
=91	=91	=91	=91	=91	=91	=91	=91	=91
8BB-/L	.	.	4b-\	.	4dd\	.	16dd\LL	.
.	.	.	.	.	.	.	16ff\JJ	.
8D/	6	.	.	.	.	.	16r	.
*	*	*	*	*	*	*	*custos:cc	*
.	.	.	.	.	.	.	16b-\	.
!	!	!	!	!	!	!	!LO:LB:g=original	!
8E-/	6	.	4r	.	4r	.	16cc\LL	.
.	.	.	.	.	.	.	16ee-\JJ	.
8F/J	.	.	.	.	.	.	16r	.
!	!	!	!	!	!	!	!LO:N:vis=8	!
.	.	.	.	.	.	.	16a\	.
=92	=92	=92	=92	=92	=92	=92	=92	=92
!	!	!	!	!LO:DY:a:B:t=for.	!	!LO:DY:a:B:t=for.	!	!
16B-|\LL	.	.	16b-/LL	f	16b-/LL	f	4b-\	-mus
16F|\	.	.	16f/	.	16f/	.	.	.
16D|\	.	.	16d/	.	16d/	.	.	.
16F|\JJ	.	.	16f/JJ	.	16f/JJ	.	.	.
4BB-/	.	.	4B-/	.	4B-/	.	8r	.
.	.	.	.	.	.	.	8b-\	MA-
=93	=93	=93	=93	=93	=93	=93	=93	=93
2F;\	.	.	2r;	.	2r;	.	2cc;\	-RI-
!LO:PB:g=original	!	!	!	!	!	!	!	!
=94	=94	=94	=94	=94	=94	=94	=94	=94
*	*	*	*tremolo	*	*	*	*	*
!LO:TX:a:t=P:problem=mixed beam	!	!LO:DY:a:B:t=Forte	!	!LO:DY:a:i:B:t=Forté.	!	!LO:DY:a:i:B:t=Forte.	!	!
8BB-/L	.	f	8d/L	f	8b-\L	f	4b-\	-AM.
8B-\	.	.	8d/	.	(16ff\L	.	.	.
.	.	.	.	.	16dd\JJ)	.	.	.
8B-\	.	.	8d/	.	8b-/L	.	4r	.
8B-\J	.	.	8d/J	.	8f/J	.	.	.
*	*	*	*Xtremolo	*	*	*	*	*
=95	=95	=95	=95	=95	=95	=95	=95	=95
!LO:TX:a:t=P:problem=mixed beam	!	!	!	!	!LO:TX:aG:B:t=r	!	!LO:TX:a:t=15.	!
8B-\L	6:5 4:3	.	8e-/L	.	8g/L	.	2r	.
16BB-/L	.	.	(16d/L	.	8f/J	.	.	.
16C/JJ	.	.	16e-/JJ)	.	.	.	.	.
8D/L	.	.	8f/L	.	8r	.	.	.
8BB-/J	.	.	8d/J	.	8b-\	.	.	.
=96	=96	=96	=96	=96	=96	=96	=96	=96
8r	.	.	8r	.	(16a/LL	.	2r	.
.	.	.	.	.	16g/J)	.	.	.
16F\LL	.	.	16a\LL	.	8f|/J	.	.	.
16G\JJ	.	.	16b-\JJ	.	.	.	.	.
8A\L	6	.	8cc\L	.	8r	.	.	.
8F\J	7	.	8a\J	.	8ee-\	.	.	.
=97	=97	=97	=97	=97	=97	=97	=97	=97
8r	.	.	8r	.	(16dd\LL	.	2r	.
.	.	.	.	.	16cc\)J	.	.	.
16BB-/LL	.	.	16d/LL	.	8b-\J	.	.	.
16C/JJ	.	.	16e-/JJ	.	.	.	.	.
!	!	!	!	!	!LO:LB:g=original	!	!	!
8D/L	.	.	8f/L	.	8r	.	.	.
8BB-/J	.	.	8d/J	.	8ff\	.	.	.
!	!	!	!LO:LB:g=original	!	!	!	!	!
=98	=98	=98	=98	=98	=98	=98	=98	=98
8r	.	.	8r	.	16gg\LL	.	2r	.
.	.	.	.	.	16ee-\JJ	.	.	.
!LO:TX:a:t=P:problem=mixed beam	!	!	!	!	!	!	!	!
8C\L	.	.	4e-/	.	4cc\	.	.	.
8G\	6 4	.	.	.	.	.	.	.
8GG/J	4 n	.	8d/	.	8bn\	.	.	.
=99	=99	=99	=99	=99	=99	=99	=99	=99
!	!	!	!	!	!	!LO:DY:a:B:t=f&colon;	!	!
16C\LL	.	.	16c/LL	.	16cc/LL	f	2r	.
16G|\	.	.	16g/	.	16g/	.	.	.
16E-|\	.	.	16e-/	.	16e-/	.	.	.
16G|\J	.	.	16g/JJ	.	16g/JJ	.	.	.
!	!	!	!	!	!LO:TX:a:t=P:problem=mixed beam	!	!	!
8C\J	.	.	8c/	.	8c/L	.	.	.
8r	.	.	8r	.	8ee-\J	.	.	.
=100	=100	=100	=100	=100	=100	=100	=100	=100
8r	.	.	8r	.	16ff\LL	.	2r	.
.	.	.	.	.	16dd\JJ	.	.	.
!LO:TX:a:t=P:problem=mixed beam	!	!	!	!	!	!	!	!
.	.	.	.	.	8qqcc/	.	.	.
8BB-\L	.	.	4d/	.	4b-\	.	.	.
8F\	6 4	.	.	.	.	.	.	.
8FF/J	5 3	.	8c/	.	8a/	.	.	.
!LO:LB:g=original	!	!	!	!	!	!	!	!
=101	=101	=101	=101	=101	=101	=101	=101	=101
16BB-\LL	.	.	16B-/LL	.	16b-/LL	.	2r	.
16F|\	.	.	16f/	.	16f/	.	.	.
16D|\	.	.	16d/	.	16d/	.	.	.
16F|\J	.	.	16f/JJ	.	16f/JJ	.	.	.
!	!	!	!	!	!LO:TX:a:t=P:problem=mixed beam	!	!	!
8BB-|\J	.	.	8B-/L	.	8B-/L	.	.	.
8r	.	.	8d/J	.	8b-\J	.	.	.
=102	=102	=102	=102	=102	=102	=102	=102	=102
!LO:TX:a:t=P:problem=mixed beam	!	!	!	!	!LO:TUP:b	!	!	!
8F\L	7	.	8a\L	.	24f/LL	.	2r	.
.	.	.	.	.	24a/	.	.	.
.	.	.	.	.	24cc/JJ	.	.	.
8A\	.	.	8cc\J	.	24ee-\LL	.	.	.
.	.	.	.	.	24dd\	.	.	.
.	.	.	.	.	24cc\JJ	.	.	.
8B-\	.	.	8f\L	.	24dd\LL	.	.	.
.	.	.	.	.	24ff\	.	.	.
.	.	.	.	.	24bb-\JJ	.	.	.
8BB-/J	.	.	24dd\L	.	24ff\LL	.	.	.
.	.	.	24cc\	.	24ee-\	.	.	.
.	.	.	24b-\JJ	.	24dd\JJ	.	.	.
!	!	!	!	!	!LO:LB:g=original	!	!	!
=103	=103	=103	=103	=103	=103	=103	=103	=103
!	!	!	!LO:TX:a:B:t=r	!	!LO:TX:a:B:t=r	!	!	!
8F\L	6:5 4:3	.	8b-/L	.	8dd\L	.	2r	.
16F\L	.	.	8a/J	.	8cc\J	.	.	.
16G\JJ	.	.	.	.	.	.	.	.
8A\L	.	.	8r	.	8r	.	.	.
8F\J	.	.	8a/	.	8cc\	.	.	.
=104|:	=104	=104	=104|:	=104	=104	=104	=104	=104
!LO:TX:a:t=P:problem=mixed beam	!	!	!	!	!	!	!	!
8BB-/L	.	.	16b-/LL	.	16dd\LL	.	2r	.
.	.	.	16f/	.	16dd\	.	.	.
8B-\	.	.	16b-/	.	16dd\	.	.	.
.	.	.	16f/JJ	.	16dd\JJ	.	.	.
*	*	*	*	*	*tremolo	*	*	*
8A\	6 5	.	16cc/LL	.	16ee-\LL	.	.	.
.	.	.	16f/	.	16ee-\	.	.	.
8F\J	.	.	16cc/	.	16ee-\	.	.	.
.	.	.	16f/JJ	.	16ee-\JJ	.	.	.
*	*	*	*	*	*Xtremolo	*	*	*
!	!	!	!LO:LB:g=original	!	!	!	!	!
=105	=105	=105	=105	=105	=105	=105	=105	=105
!LO:TX:a:t=P:problem=mixed beam	!	!	!	!	!	!	!	!
8B-\L	.	.	8dd\L	.	8ff\L	.	2r	.
8E-\	.	.	8ee-\	.	24bb-\L	.	.	.
.	.	.	.	.	24aa\	.	.	.
.	.	.	.	.	24gg\JJ	.	.	.
8F\	.	.	8dd\	.	8ff\L	.	.	.
8FF/J	7	.	8cc\J	.	8ee-\J	.	.	.
=106:|	=106	=106	=106:|	=106	=106	=106	=106	=106
!LO:TX:a:t=P:problem=t.106-107 zapisane jako repetycja	!	!	!	!	!	!	!	!
!LO:TX:a:t=P:problem=mixed beam	!	!	!LO:TX:a:t=P:problem=t.106-107 zapisane jako repetycja	!	!	!	!	!
8BB-/Lyy	.	.	16b-/LLyy	.	24dd\LL	.	2r	.
.	.	.	.	.	24dd\	.	.	.
.	.	.	16f/yy	.	.	.	.	.
.	.	.	.	.	24dd\	.	.	.
8B-\yy	.	.	16b-/yy	.	24dd\	.	.	.
.	.	.	.	.	24dd\	.	.	.
.	.	.	16f/JJyy	.	.	.	.	.
.	.	.	.	.	24dd\JJ	.	.	.
*	*	*	*	*	*tremolo	*	*	*
8A\yy	.	.	16cc/LLyy	.	16ee-\LL	.	.	.
.	.	.	16f/yy	.	16ee-\	.	.	.
8F\Jyy	.	.	16cc/yy	.	16ee-\	.	.	.
.	.	.	16f/JJyy	.	16ee-\JJ	.	.	.
*	*	*	*	*	*Xtremolo	*	*	*
=107	=107	=107	=107	=107	=107	=107	=107	=107
!LO:TX:a:t=P:problem=mixed beam	!	!	!	!	!	!	!	!
8B-\Lyy	.	.	8dd\Lyy	.	8ff\L	.	2r	.
8E-\yy	.	.	8ee-\yy	.	24bb-\L	.	.	.
.	.	.	.	.	24ccc\	.	.	.
.	.	.	.	.	24ddd\JJ	.	.	.
8F\yy	.	.	8dd\yy	.	8ff\L	.	.	.
8FF/Jyy	.	.	8cc\Jyy	.	8ee-\J	.	.	.
!	!	!	!	!	!LO:LB:g=original	!	!	!
=108	=108	=108	=108	=108	=108	=108	=108	=108
8BB-/L	.	.	(16b-\LL	.	(16dd\LL	.	2r	.
.	.	.	16dd\JJ)	.	16ff\JJ)	.	.	.
8D/	6	.	16r	.	16r	.	.	.
.	.	.	16f|/	.	16b-|/	.	.	.
8E-/	6	.	(16e-/LL	.	(16cc\LL	.	.	.
.	.	.	16g/JJ)	.	16ee-\JJ)	.	.	.
8F/J	.	.	16r	.	16r	.	.	.
.	.	.	16c/	.	16a|/	.	.	.
=109	=109	=109	=109	=109	=109	=109	=109	=109
8B-\L	.	.	8d/L	.	8b-|/L	.	2r	.
32F|\LL	.	.	32f/LL	.	32f/LL	.	.	.
32E-|\	.	.	(32e-/	.	(32e-/	.	.	.
32D|\	.	.	32d/)	.	32d/)	.	.	.
32C|\JJJ	.	.	32c/JJJ	.	32c/JJJ	.	.	.
!LO:TX:a:t=Finis&colon;	!	!	!LO:TX:a:t=Finis	!	!LO:TX:a:t=Finis.	!	!	!
4BB-|/	.	.	4B-/	.	4B-/	.	.	.
!LO:LB:g=original	!	!	!	!	!	!	!	!
=110||	=110||	=110||	=110||	=110||	=110||	=110||	=110||;;	=110||;;
!	!	!	!	!LO:DY:a:B:t=piano.	!	!	!	!
8G\L	.	.	8b-\L	p	8dd\L	.	8g\	Au-
!	!	!	!	!	!	!LO:DY:a:B:t=pia.	!	!
8G\	.	.	8b-\	.	8dd\	p	(16dd\LL	-di-
.	.	.	.	.	.	.	16b-\JJ)	.
8G\	.	.	8b-\	.	8dd\	.	8g/	-te
8G\J	.	.	8b-\J	.	8dd\J	.	8dd\	vo-
=111	=111	=111	=111	=111	=111	=111	=111	=111
!LO:TX:a:t=P:problem=mixed beam	!	!	!	!	!	!	!	!
.	.	.	.	.	.	.	16qqff/	.
!	!	!	!	!	!LO:TX:a:B:t=r	!	!	!
8G\L	6 4	.	8cc\L	.	8ee-\L	.	8ee-\	-can-
8GG/J	5 4	.	8b-\J	.	8dd\J	.	8dd\	-tes
!	!	!	!	!LO:DY:a:B:t=for.	!	!LO:DY:a:B:t=f&colon;	!	!
4r	.	.	(16b-\LL	f	(16dd\LL	f	4r	.
.	.	.	16a\)	.	16ff#X\)	.	.	.
.	.	.	(16a\	.	(16ff#\	.	.	.
.	.	.	16b-\JJ)	.	16gg\JJ)	.	.	.
!	!	!	!LO:LB:g=original	!	!LO:LB:g=original	!	!LO:LB:g=original	!
=112	=112	=112	=112	=112	=112	=112	=112	=112
!	!	!	!	!LO:DY:a:B:t=p&colon;	!	!LO:DY:a:B:t=p&colon;	!	!
*tremolo	*	*	*	*	*	*	*	*
8F#X\L	7 5 3	.	4cc\	p	4ee-\	p	4ee-\	tu-
8F#X\	.	.	.	.	.	.	.	.
8F#X\	.	.	(16dd\LL	.	(16dd\LL	.	(16dd\LL	-os
.	.	.	16cc\)	.	16cc\)	.	16cc\JJ)	.
8F#X\J	.	.	(16b-\	.	(16b-\	.	(16b-\LL	cli-
.	.	.	16a\JJ)	.	16a\JJ)	.	16a\JJ)	.
*Xtremolo	*	*	*	*	*	*	*	*
=113	=113	=113	=113	=113	=113	=113	=113	=113
!LO:TX:a:t=P:problem=mixed beam	!	!	!	!	!	!	!	!
8G\L	.	.	(16b-/LL	.	16b-/LL	.	16b-\LL	-en-
.	.	.	16a/J)	.	16a/J	.	16a\JJ	.
8GG/J	.	.	8g|/J	.	8g/J	.	8g/	-tes
!	!	!	!	!LO:DY:a:B:t=f&colon;	!	!LO:DY:a:B:t=f&colon;	!	!
4r	.	.	(16g/LL	f	(16ee-\LL	f	4r	.
.	.	.	16e-/)	.	16cc\)	.	.	.
.	.	.	(16d/	.	(16b-\	.	.	.
.	.	.	16c/JJ)	.	16a\JJ)	.	.	.
=114	=114	=114	=114	=114	=114	=114	=114	=114
*tremolo	*	*	*tremolo	*	*	*	*	*
!	!	!	!	!LO:DY:a:B:t=p&colon;	!	!LO:DY:a:B:t=p&colon;	!	!
8B-\L	.	.	8d/L	p	8b-/L	p	8b-\	Au-
8B-\	.	.	8d/	.	8f/	.	16ff\LL	-di-
.	.	.	.	.	.	.	16dd\JJ	.
8B-\	.	.	8d/	.	8f/	.	8b-\	-te
8B-\J	.	.	8d/J	.	8f/J	.	8f/	pe-
*Xtremolo	*	*	*Xtremolo	*	*	*	*	*
=115	=115	=115	=115	=115	=115	=115	=115	=115
!LO:TX:a:t=P:problem=mixed beam	!	!	!	!	!LO:TX:a:B:t=r	!	!	!
8B-\L	6 4	.	8e-/L	.	8g/L	.	8g/	-ten-
8BB-/J	5 3	.	8d/J	.	8f/J	.	8f/	-tes
!	!	!	!	!LO:DY:a:B:t=f&colon;	!	!LO:DY:a:B:t=f&colon;	!	!
4r	.	.	16d/LL	f	16f/LL	f	4r	.
.	.	.	16c/	.	16a/	.	.	.
.	.	.	16c/	.	16a/	.	.	.
.	.	.	16d/JJ	.	16b-/JJ	.	.	.
=116	=116	=116	=116	=116	=116	=116	=116	=116
!	!	!	!	!LO:DY:a:B:t=p&colon;	!	!LO:DY:a:B:t=p&colon;	!	!
8A\L	7 5 3	.	4ee-\	p	4gg\	p	4gg\	Te
8A\	.	.	.	.	.	.	.	.
8A\	.	.	(16ff\LL	.	(16ff\LL	.	16ff\LL	in
.	.	.	16ee-\)	.	16ee-\)	.	16ee-\JJ	.
8A\J	.	.	(16dd\	.	(16dd\	.	16dd\LL	vo-
.	.	.	16cc\JJ)	.	16cc\JJ)	.	16cc\JJ	.
!	!	!	!	!	!LO:LB:g=original	!	!	!
=117	=117	=117	=117	=117	=117	=117	=117	=117
!LO:TX:a:t=P:problem=mixed beam	!	!	!	!	!	!	!	!
8B-\L	.	.	(16dd\LL	.	16dd\LL	.	16dd\LL	-can-
.	.	.	16cc\J)	.	16cc\J	.	16cc\JJ	.
8BB-/J	.	.	8b-\J	.	8b-\J	.	8b-\	-tes
!	!	!	!	!	!	!	!LO:LB:g=original	!
!	!	!	!	!LO:DY:a:B:t=f&colon;	!	!LO:DY:a:B:t=f&colon;	!	!
4r	.	.	(16f/LL	f	(16dd\LL	f	4r	.
.	.	.	16e-/)	.	16cc\)	.	.	.
.	.	.	(16e-/	.	(16cc\	.	.	.
.	.	.	16d/JJ)	.	16b-\JJ)	.	.	.
!	!	!	!LO:LB:g=original	!	!	!	!	!
=118	=118	=118	=118	=118	=118	=118	=118	=118
*tremolo	*	*	*tremolo	*	*	*	*	*
!	!	!	!	!LO:DY:a:B:t=p&colon;	!	!LO:DY:a:B:t=p&colon;	!	!
8G\L	5 n	.	8bn\L	p	8dd\L	p	8g/	Mor-
8G\	.	.	8bn\	.	8dd\	.	16dd\LL	-tis
.	.	.	.	.	.	.	16bn\JJ	.
8G\	.	.	8bn\	.	8dd\	.	8g/	in
8G\J	.	.	8bn\J	.	8dd\J	.	8gg\	a-
*Xtremolo	*	*	*Xtremolo	*	*	*	*	*
!LO:LB:g=original	!	!	!	!	!	!	!	!
=119	=119	=119	=119	=119	=119	=119	=119	=119
!LO:TX:a:t=P:problem=mixed beam	!	!	!	!	!	!	!	!
8c\L	.	.	8g/L	.	8ee-\L	.	8ee-\	-go-
8C/J	.	.	8e-/J	.	8cc\J	.	8cc\	-ne
!	!	!	!	!LO:DY:a:B:t=f&colon;	!	!LO:DY:a:B:t=f&colon;	!	!
4r	.	.	(16g/LL	f	(16ee-\LL	f	4r	.
.	.	.	16f/)	.	16dd\)	.	.	.
.	.	.	(16f/	.	(16dd\	.	.	.
.	.	.	16e-/JJ)	.	16cc\JJ)	.	.	.
=120	=120	=120	=120	=120	=120	=120	=120	=120
*tremolo	*	*	*tremolo	*	*	*	*	*
!	!	!	!	!LO:DY:a:B:t=p&colon;	!	!LO:DY:a:B:t=p&colon;	!	!
8F\L	.	.	8a/L	p	2cc\	p	8f/	a-
8F\	.	.	8a/	.	.	.	16cc\LL	-deſ-
.	.	.	.	.	.	.	16a\JJ	.
8F\	.	.	8a/	.	.	.	8f/	-to
8F\J	.	.	8a/J	.	.	.	8ff\	Pa-
*Xtremolo	*	*	*Xtremolo	*	*	*	*	*
=121	=121	=121	=121	=121	=121	=121	=121	=121
!LO:TX:a:t=P:problem=mixed beam	!	!	!	!	!	!	!	!
8B-\L	.	.	8f/L	.	8dd\L	.	8dd\	-tro-
8BB-/J	.	.	8d/J	.	8b-\J	.	8b-\	-na
!	!	!	!	!LO:DY:a:B:t=f&colon;	!	!LO:DY:a:B:t=f&colon;	!LO:TX:b:t=Verte Citiſsimo	!
!	!	!	!	!	!	!	!LO:SIC:v:t=dd	!
4r	.	.	(16f/LL	f	(16dd\LL	f	8r	.
.	.	.	16e-/)	.	16cc\)	.	.	.
!	!	!	!	!	!	!	!LO:PB:g=original	!
.	.	.	(16e-/	.	(16cc\	.	8dd\	ut
.	.	.	16d/JJ)	.	16b-\JJ)	.	.	.
=122	=122	=122	=122	=122	=122	=122	=122	=122
!	!	!	!	!LO:DY:a:B:t=p&colon;	!	!LO:DY:a:B:t=p&colon;	!	!
8C/L	5_ 3_	.	8e-/L	p	16ee-\LL	p	16ee-\LL	De-
.	.	.	.	.	16dd\	.	16dd\	.
8C/	.	.	8e-/	.	16cc\	.	16cc\	.
.	.	.	.	.	16b-\JJ	.	16b-\JJ	.
8C/	.	.	8e-/	.	8a/L	.	8a\L	.
8C#X/J	x n	.	8en/J	.	8g/J	.	8g\J	.
=123	=123	=123	=123	=123	=123	=123	=123	=123
8r	.	.	8r	.	8r	.	(16f#X/LL	.
.	.	.	.	.	.	.	16a/J)	.
8D\L	#	.	8f#X/L	.	8a/L	.	8d/J	.
8D\	.	.	8f#/	.	8a/	.	16d/KL	.
.	.	.	.	.	.	.	8f#X/	.
8D\J	.	.	8f#/J	.	8a/J	.	.	.
.	.	.	.	.	.	.	16a/Jk	.
=124	=124	=124	=124	=124	=124	=124	=124	=124
8r	.	.	8r	.	8r	.	(16g/LL	.
.	.	.	.	.	.	.	16b-/J)	.
8D\L	6 4	.	8g/L	.	8b-\L	.	8d/J	.
8D\	.	.	8g/	.	8b-\	.	16d/KL	.
.	.	.	.	.	.	.	8g/	.
8D\J	.	.	8g/J	.	8b-\J	.	.	.
.	.	.	.	.	.	.	16b-/Jk	.
!	!	!	!LO:LB:g=original	!	!	!	!	!
=125	=125	=125	=125	=125	=125	=125	=125	=125
!	!	!	!	!	!	!	!LO:TX:a:t=P:problem=mixed beam	!
8r	.	.	8r	.	8r	.	(16a\LL	.
.	.	.	.	.	.	.	16cc\J)	.
8D\L	7 #	.	8a/L	.	8cc\L	.	8d/J	.
8D\	.	.	8a/	.	8cc\	.	16d/KL	.
.	.	.	.	.	.	.	8a/	.
8D\J	.	.	8a/J	.	8cc\J	.	.	.
*	*	*	*	*	*	*	*custos:b-	*
.	.	.	.	.	.	.	16cc/Jk	.
!	!	!	!	!	!	!	!LO:LB:g=original	!
=126	=126	=126	=126	=126	=126	=126	=126	=126
!LO:TX:a:t=P:problem=mixed beam	!	!	!	!	!	!	!	!
8G\L	.	.	8b-|/L	.	8dd\L	.	(16b-\LL	.
.	.	.	.	.	.	.	16dd\	.
8c\	.	.	(16g/L	.	(16ee-\L	.	16ee-\	.
.	.	.	16e-/JJ)	.	16cc\JJ)	.	16cc\JJ)	.
8d\	6 4	.	(16d/LL	.	(16b-/LL	.	(16b-\LL	.
.	.	.	16c/)	.	16a/)	.	16a\)	.
8D/J	5 #	.	(16B-/	.	(16g/	.	(16g\	.
.	.	.	16A/JJ)	.	16f#X/JJ)	.	16f#X\JJ)	.
!LO:LB:g=original	!	!	!	!	!	!	!	!
=127	=127	=127	=127	=127	=127	=127	=127	=127
!	!	!	!	!	!	!	!LO:SIC:v:o=8qqf	!
.	.	.	.	.	.	.	(8qqf#y/	.
!	!	!	!	!LO:DY:a:B:t=for.	!	!LO:DY:a:B:t=f&colon;	!	!
4G\	.	.	16B-/LL	f	16g\LL	f	4g\)	-um
.	.	.	16b-|/	.	16dd|\	.	.	.
.	.	.	(16b-/	.	(16dd\	.	.	.
.	.	.	16a/JJ)	.	16cc\JJ)	.	.	.
8r	.	.	8g/L	.	8b-/L	.	8r	.
!	!	!	!	!	!	!LO:DY:a:B:t=pia	!	!
8D\	#	.	8f#X/J	.	8a/J	p	8a\	u-
!	!	!	!	!	!LO:LB:g=original	!	!	!
=128	=128	=128	=128	=128	=128	=128	=128	=128
!LO:TX:t=P:problem=mixed beam	!	!	!	!	!	!	!LO:TX:a:t=P:problem=ukryta "3"	!
8GG/L	.	.	8r	.	8r	.	24b-\LL	na
.	.	.	.	.	.	.	24cc\	.
.	.	.	.	.	.	.	24dd\JJ	.
!	!	!	!	!LO:DY:a:B:t=p&colon;	!	!	!	!
8G\	.	.	8b-\L	p	8dd\L	.	4.ddt\	.
8G\	.	.	8b-\	.	8dd\	.	.	.
8G\J	.	.	8b-\J	.	8dd\J	.	.	.
=129	=129	=129	=129	=129	=129	=129	=129	=129
8r	.	.	8r	.	8r	.	24cc\LL	te-
.	.	.	.	.	.	.	24b-\	.
.	.	.	.	.	.	.	24a\JJ	.
8D\L	7 #	.	8a/L	.	8cc\L	.	4.a\	-cum
8D\	.	.	8a/	.	8cc\	.	.	.
8D\J	.	.	8a/J	.	8cc\J	.	.	.
=130	=130	=130	=130	=130	=130	=130	=130	=130
8r	.	.	8r	.	8r	.	24b-\LL	in
.	.	.	.	.	.	.	24dd\	.
.	.	.	.	.	.	.	24gg\JJ	.
8GG/L	.	.	8d/L	.	8b-\L	.	4.dd\	.
8GG/	.	.	8d/	.	8b-\	.	.	.
8GG/J	.	.	8d/J	.	8b-\J	.	.	.
=131	=131	=131	=131	=131	=131	=131	=131	=131
8r	.	.	8r	.	8r	.	24cc\LL	Cae-
.	.	.	.	.	.	.	24b-\	.
*	*	*	*	*	*	*	*custos:a	*
.	.	.	.	.	.	.	24a\JJ	.
!	!	!	!	!	!	!	!LO:LB:g=original	!
8D\L	7 #	.	8c/L	.	8a/L	.	4.a\	.
8D\	.	.	8c/	.	8a/	.	.	.
8D\J	.	.	8c/J	.	8a/J	.	.	.
!	!	!	!LO:LB:g=original	!	!	!	!	!
=132	=132	=132	=132	=132	=132	=132	=132	=132
8G\L	.	.	8b-\L	.	(16b-\LL	.	16b-\LL	.
.	.	.	.	.	16gg\)	.	16gg\	.
8C\	.	.	(16cc\L	.	(16ee-\	.	(16ee-\	.
.	.	.	16a\JJ)	.	16cc\JJ)	.	16cc\JJ)	.
8D\	4	.	8g/L	.	8b-/L	.	8b-\L	.
8D\J	#	.	8f#X/J	.	8a/J	.	8a\J	.
=133	=133	=133	=133	=133	=133	=133	=133	=133
!	!	!	!	!LO:DY:a:B:t=for.	!	!LO:DY:a:B:t=f&colon;	!	!
4G\	.	.	16g/LL	f	(16g/LL	f	4g\	-lis
.	.	.	16d|/	.	16b-/)	.	.	.
.	.	.	(16d/	.	(16b-/	.	.	.
.	.	.	16c/JJ)	.	16a/JJ)	.	.	.
8r	.	.	8B-/L	.	8g/L	.	8r	.
!	!	!	!	!LO:DY:a:B:t=p&colon;	!	!LO:DY:a:B:t=p&colon;	!	!
8D\	#	.	8f#X/J	p	8a/J	p	8a\	ae-
!	!	!	!	!	!LO:LB:g=original	!	!	!
=134	=134	=134	=134|:	=134	=134|:	=134	=134	=134
!LO:TX:a:t=P:problem=mixed beam	!	!	!	!	!	!	!	!
.	.	.	.	.	.	.	8qqcc	.
8GG/L	.	.	16g/LL	.	16b-\LL	.	4b-\	-ter-
.	.	.	16d/	.	16b-\	.	.	.
8G\	.	.	16g/	.	16b-\	.	.	.
.	.	.	16d/JJ	.	16b-\JJ	.	.	.
.	.	.	.	.	.	.	8qqdd	.
*	*	*	*	*	*tremolo	*	*	*
8F#X\	6	.	16a/LL	.	16cc\LL	.	4cc\	-ne
.	.	.	16d/	.	16cc\	.	.	.
8D\J	7	.	16a/	.	16cc\	.	.	.
.	.	.	16d/JJ	.	16cc\JJ	.	.	.
*	*	*	*	*	*Xtremolo	*	*	*
!LO:LB:g=original	!	!	!	!	!	!	!	!
=135	=135	=135	=135	=135	=135	=135	=135	=135
!LO:TX:a:t=P:problem=mixed beam	!	!	!	!	!	!	!	!
8G\L	.	.	8b-\L	.	8dd\L	.	8dd\L	va-
8c\	.	.	8cc\	.	8ee-\	.	24cc\L	.
.	.	.	.	.	.	.	24dd\	.
.	.	.	.	.	.	.	24ee-\JJ	.
8d\	#	.	8b-\	.	8dd\	.	8dd\L	.
8D/J	7	.	8a\J	.	8cc\J	.	8cc\J	.
=136	=136	=136	=136:|	=136	=136:|	=136	=136	=136
!LO:TX:a:t=P:problem=mixed beam	!	!	!LO:TX:a:t=P:problem=t.138-139 zapisane jako repetycja	!	!LO:TX:a:t=P:problem=t.138-139 zapisane jako repetycja	!	!	!
8GG/L	.	.	16g/LLyy	.	16b-\LLyy	.	8.b-T\L	.
.	.	.	16d/yy	.	16b-\yy	.	.	.
8G\	.	.	16g/yy	.	16b-\yy	.	.	.
.	.	.	16d/JJyy	.	16b-\JJyy	.	(32a\LL	.
.	.	.	.	.	.	.	32b-\JJJ)	.
*	*	*	*	*	*tremolo	*	*	*
8F#X\	6	.	16a/LLyy	.	16cc\LLyy	.	8.ccT\L	.
.	.	.	16d/yy	.	16cc\yy	.	.	.
8D\J	3	.	16a/yy	.	16cc\yy	.	.	.
.	.	.	16d/JJyy	.	16cc\JJyy	.	(32b-\LL	.
*	*	*	*	*	*Xtremolo	*	*	*
*	*	*	*	*	*	*	*custos:dd	*
.	.	.	.	.	.	.	32cc\JJJ)	.
!	!	!	!	!	!	!	!LO:LB:g=original	!
=137	=137	=137	=137	=137	=137	=137	=137	=137
!LO:TX:a:t=P:problem=mixed beam	!	!	!	!	!	!	!	!
8G\L	.	.	8b-\Lyy	.	8dd\Lyy	.	8dd\L	.
8c\	.	.	8cc\yy	.	8ee-\yy	.	24ff\L	.
.	.	.	.	.	.	.	24ee-\	.
.	.	.	.	.	.	.	24dd\JJ	.
8d\	#	.	8b-\yy	.	8dd\yy	.	8dd\L	.
8D/J	7	.	8a\Jyy	.	8cc\Jyy	.	8cc\J	.
=138	=138	=138	=138	=138	=138	=138	=138	=138
!LO:TX:a:t=P:problem=mixed beam	!	!	!	!	!	!	!	!
8G/L	.	.	4g/	.	4b-\	.	(16b-\LL	.
.	.	.	.	.	.	.	16dd\JJ)	.
8BB-\	6	.	.	.	.	.	16r	.
!	!	!	!	!	!	!	!LO:N:vis=8	!
.	.	.	.	.	.	.	16g/	.
8C\	6	.	4r	.	4r	.	16a\LL	.
.	.	.	.	.	.	.	16cc\JJ	.
8D\J	#	.	.	.	.	.	16r	.
.	.	.	.	.	.	.	16f#X/	-a-
=139	=139	=139	=139	=139	=139	=139	=139	=139
!	!	!	!	!LO:DY:a:B:t=for.	!	!LO:DY:a:B:t=for.	!	!
16G|\LL	.	.	16g'/LL	f	16g/LL	f	4g/	-mus
16D|\	.	.	16d'/	.	16d/	.	.	.
16BB-|\	.	.	16B-'/	.	16B-/	.	.	.
16D|\JJ	.	.	16d'/JJ	.	16d/JJ	.	.	.
4GG/	.	.	4G'/	.	4G/	.	8r	.
.	.	.	.	.	.	.	8g/	Lau-
=140	=140	=140	=140	=140	=140	=140	=140	=140
!	!	!	!	!	!	!	!LO:TX:a:B:t=tr.	!
2D;\	.	.	2r;	.	2r;	.	2a\	-da-
=141	=141	=141	=141	=141	=141	=141	=141	=141
!	!	!	!LO:TX:b:t=da capo	!	!LO:TX:a:t=da capo	!	!	!
4GG/	.	.	2r	.	2r	.	4g/	-re.
!LO:TX:b:t=da Capo	!	!	!	!	!	!	!LO:TX:b:t=Da Capo ad Signum Finis.	!
4r	.	.	.	.	.	.	4r	.
==	==	==	==	==	==	==	==	==
*-	*-	*-	*-	*-	*-	*-	*-	*-
!!!RDF**kern: | = vertical stroke
!!!system-decoration: [(s1)][(s2,s3)][(s4)]
!!!ENC: Marcin Jachim
!!!END: 2020-06-29
!!!ENC: Urszula Świątek
!!!END: 2022-01-31
!!!YEC: Copyright 2022 Narodowy Instytut Fryderyka Chopina (https://polishscores.org)
!!!YEM: License CC-BY-4.0 (https://creativecommons.org/licenses/by/4.0)
